X:333
T:Holborn March
C:Johnson, 1740
M:2/2
S:Colin Hume's website,  colinhume.com  - chords can also be printed below the stave.
Q:1/2=112
L:1/4
K:F
P:A
|: "F"c2 "C7"c2 | "F"c3 B/c/ | "Bb"dc BA | "C7"G3 C | "F"FA- "C7"AG | "F"Ac- "Bb"cB | "F"A2 "C7"G2 | "F"F4 :|
P:B
"C"g2 "G7"g2 | "C"g3 f/g/ | "F"ag fe | "G7"d3 G | "C"ce- "G7"ed | "C"eg- "F"gf | "C"e2 "G7"d2 | "C"c4 |
P:C
"F"c2 "C7"c2 | "F"c3 B/c/ | "Bb"dc BA | "C7"G3 C | "F"FA- "C7"AG | "F"Ac- "Bb"cb | "F"ag/f/ "C7"ge | "F"f4 |]

